docs/topics/services/img/plantuml/bootstrap/bootstrap_get_request.svg

<svg contentStyleType="text/css" height="348" preserveAspectRatio="none" viewBox="0 0 725 348" width="725" xmlns="http://www.w3.org/2000/svg" zoomAndPan="magnify"><path d="m0 0h725v348h-725z" fill="#f0f8ff"/><path d="m34 198.041h558.3638v81.9316h-558.3638z" fill="none" stroke="#000" stroke-width="1.5"/><g stroke-width=".5"><path d="m219 36.4883v260.4844" stroke="#181818" stroke-dasharray="5 5"/><path d="m510.7778 36.4883v260.4844" stroke="#181818" stroke-dasharray="5 5"/><rect fill="#ddd" height="30.4883" rx="2.5" stroke="#666" width="93.666" x="173" y="5"/></g><text fill="#333" font-family="sans-serif" font-size="14" lengthAdjust="spacing" textLength="79.666" x="180" y="25.5352">HTTP Client</text><rect fill="#ddd" height="30.4883" rx="2.5" stroke="#666" stroke-width=".5" width="93.666" x="173" y="295.9727"/><text fill="#333" font-family="sans-serif" font-size="14" lengthAdjust="spacing" textLength="79.666" x="180" y="316.5078">HTTP Client</text><rect fill="#ddd" height="30.4883" rx="2.5" stroke="#666" stroke-width=".5" width="141.5859" x="440.7778" y="5"/><text fill="#333" font-family="sans-serif" font-size="14" lengthAdjust="spacing" textLength="127.5859" x="447.7778" y="25.5352">HTTP Server (Echo)</text><rect fill="#ddd" height="30.4883" rx="2.5" stroke="#666" stroke-width=".5" width="141.5859" x="440.7778" y="295.9727"/><text fill="#333" font-family="sans-serif" font-size="14" lengthAdjust="spacing" textLength="127.5859" x="447.7778" y="316.5078">HTTP Server (Echo)</text><path d="m499.5708 63.7988 10 4-10 4 4-4z" fill="#666" stroke="#666"/><path d="m219.833 67.7988h285.7378" stroke="#666"/><text fill="#333" font-family="sans-serif" font-size="13" lengthAdjust="spacing" textLength="110.9888" x="226.833" y="63.0566">HTTP GET /nodes</text><path d="m516 80.7988v40h202v-30l-10-10z" fill="#feffdd" stroke="#181818" stroke-width=".5"/><path d="m708 80.7988v10h10z" fill="#feffdd" stroke="#181818" stroke-width=".5"/><text fill="#333" font-family="sans-serif" font-size="13" lengthAdjust="spacing" textLength="181.4224" x="522" y="98.3672">Server processes the request</text><text fill="#333" font-family="sans-serif" font-size="13" lengthAdjust="spacing" textLength="148.6812" x="522" y="113.6777">and gathers nodes data</text><path d="m230.833 143.7305-10 4 10 4-4-4z" fill="#666" stroke="#666"/><path d="m224.833 147.7305h285.7378" stroke="#666" stroke-dasharray="2 2"/><text fill="#333" font-family="sans-serif" font-size="13" lengthAdjust="spacing" textLength="240.0049" x="236.833" y="142.9883">HTTP 200 OK with nodes data in JSON</text><path d="m5 160.7305v25h210v-15l-10-10z" fill="#feffdd" stroke="#181818" stroke-width=".5"/><path d="m205 160.7305v10h10z" fill="#feffdd" stroke="#181818" stroke-width=".5"/><text fill="#333" font-family="sans-serif" font-size="13" lengthAdjust="spacing" textLength="189.0015" x="11" y="178.2988">Client processes the response</text><path d="m34 198.041h62.1387v7.3106l-10 10h-52.1387z" fill="#eee" stroke="#000" stroke-width="1.5"/><path d="m34 198.041h558.3638v81.9316h-558.3638z" fill="none" stroke="#000" stroke-width="1.5"/><text fill="#333" font-family="sans-serif" font-size="13" font-weight="bold" lengthAdjust="spacing" textLength="17.1387" x="49" y="211.6094">alt</text><text fill="#333" font-family="sans-serif" font-size="11" font-weight="bold" lengthAdjust="spacing" textLength="112.3955" x="111.1387" y="210.6758">[If there is an error]</text><path d="m230.833 232.6621-10 4 10 4-4-4z" fill="#666" stroke="#666"/><path d="m224.833 236.6621h285.7378" stroke="#666" stroke-dasharray="2 2"/><text fill="#333" font-family="sans-serif" font-size="13" lengthAdjust="spacing" textLength="267.7378" x="236.833" y="231.9199">HTTP Error (e.g., 500 Internal Server Error)</text><path d="m44 249.6621v25h170v-15l-10-10z" fill="#feffdd" stroke="#181818" stroke-width=".5"/><path d="m204 249.6621v10h10z" fill="#feffdd" stroke="#181818" stroke-width=".5"/><text fill="#333" font-family="sans-serif" font-size="13" lengthAdjust="spacing" textLength="149.5063" x="50" y="267.2305">Client handles the error</text><text fill="#333" font-family="sans-serif" font-size="10" lengthAdjust="spacing" textLength="155.4346" y="338.1289">Last Modified On: 24-Feb-2025</text></svg>

<svg xmlns="http://www.w3.org/2000/svg" xmlns:xlink="http://www.w3.org/1999/xlink" contentStyleType="text/css" height="348px" preserveAspectRatio="none" style="width:725px;height:348px;background:#F0F8FF;" version="1.1" viewBox="0 0 725 348" width="725px" zoomAndPan="magnify"><defs/><g><rect fill="#F0F8FF" height="348" style="stroke:none;stroke-width:1.0;" width="725" x="0" y="0"/><rect fill="none" height="81.9316" style="stroke:#000000;stroke-width:1.5;" width="558.3638" x="34" y="198.041"/><line style="stroke:#181818;stroke-width:0.5;stroke-dasharray:5.0,5.0;" x1="219" x2="219" y1="36.4883" y2="296.9727"/><line style="stroke:#181818;stroke-width:0.5;stroke-dasharray:5.0,5.0;" x1="510.7778" x2="510.7778" y1="36.4883" y2="296.9727"/><rect fill="#DDDDDD" height="30.4883" rx="2.5" ry="2.5" style="stroke:#666666;stroke-width:0.5;" width="93.666" x="173" y="5"/><text fill="#333333" font-family="sans-serif" font-size="14" lengthAdjust="spacing" textLength="79.666" x="180" y="25.5352">HTTP Client</text><rect fill="#DDDDDD" height="30.4883" rx="2.5" ry="2.5" style="stroke:#666666;stroke-width:0.5;" width="93.666" x="173" y="295.9727"/><text fill="#333333" font-family="sans-serif" font-size="14" lengthAdjust="spacing" textLength="79.666" x="180" y="316.5078">HTTP Client</text><rect fill="#DDDDDD" height="30.4883" rx="2.5" ry="2.5" style="stroke:#666666;stroke-width:0.5;" width="141.5859" x="440.7778" y="5"/><text fill="#333333" font-family="sans-serif" font-size="14" lengthAdjust="spacing" textLength="127.5859" x="447.7778" y="25.5352">HTTP Server (Echo)</text><rect fill="#DDDDDD" height="30.4883" rx="2.5" ry="2.5" style="stroke:#666666;stroke-width:0.5;" width="141.5859" x="440.7778" y="295.9727"/><text fill="#333333" font-family="sans-serif" font-size="14" lengthAdjust="spacing" textLength="127.5859" x="447.7778" y="316.5078">HTTP Server (Echo)</text><polygon fill="#666666" points="499.5708,63.7988,509.5708,67.7988,499.5708,71.7988,503.5708,67.7988" style="stroke:#666666;stroke-width:1.0;"/><line style="stroke:#666666;stroke-width:1.0;" x1="219.833" x2="505.5708" y1="67.7988" y2="67.7988"/><text fill="#333333" font-family="sans-serif" font-size="13" lengthAdjust="spacing" textLength="110.9888" x="226.833" y="63.0566">HTTP GET /nodes</text><path d="M516,80.7988 L516,120.7988 L718,120.7988 L718,90.7988 L708,80.7988 L516,80.7988 " fill="#FEFFDD" style="stroke:#181818;stroke-width:0.5;"/><path d="M708,80.7988 L708,90.7988 L718,90.7988 L708,80.7988 " fill="#FEFFDD" style="stroke:#181818;stroke-width:0.5;"/><text fill="#333333" font-family="sans-serif" font-size="13" lengthAdjust="spacing" textLength="181.4224" x="522" y="98.3672">Server processes the request</text><text fill="#333333" font-family="sans-serif" font-size="13" lengthAdjust="spacing" textLength="148.6812" x="522" y="113.6777">and gathers nodes data</text><polygon fill="#666666" points="230.833,143.7305,220.833,147.7305,230.833,151.7305,226.833,147.7305" style="stroke:#666666;stroke-width:1.0;"/><line style="stroke:#666666;stroke-width:1.0;stroke-dasharray:2.0,2.0;" x1="224.833" x2="510.5708" y1="147.7305" y2="147.7305"/><text fill="#333333" font-family="sans-serif" font-size="13" lengthAdjust="spacing" textLength="240.0049" x="236.833" y="142.9883">HTTP 200 OK with nodes data in JSON</text><path d="M5,160.7305 L5,185.7305 L215,185.7305 L215,170.7305 L205,160.7305 L5,160.7305 " fill="#FEFFDD" style="stroke:#181818;stroke-width:0.5;"/><path d="M205,160.7305 L205,170.7305 L215,170.7305 L205,160.7305 " fill="#FEFFDD" style="stroke:#181818;stroke-width:0.5;"/><text fill="#333333" font-family="sans-serif" font-size="13" lengthAdjust="spacing" textLength="189.0015" x="11" y="178.2988">Client processes the response</text><path d="M34,198.041 L96.1387,198.041 L96.1387,205.3516 L86.1387,215.3516 L34,215.3516 L34,198.041 " fill="#EEEEEE" style="stroke:#000000;stroke-width:1.5;"/><rect fill="none" height="81.9316" style="stroke:#000000;stroke-width:1.5;" width="558.3638" x="34" y="198.041"/><text fill="#333333" font-family="sans-serif" font-size="13" font-weight="bold" lengthAdjust="spacing" textLength="17.1387" x="49" y="211.6094">alt</text><text fill="#333333" font-family="sans-serif" font-size="11" font-weight="bold" lengthAdjust="spacing" textLength="112.3955" x="111.1387" y="210.6758">[If there is an error]</text><polygon fill="#666666" points="230.833,232.6621,220.833,236.6621,230.833,240.6621,226.833,236.6621" style="stroke:#666666;stroke-width:1.0;"/><line style="stroke:#666666;stroke-width:1.0;stroke-dasharray:2.0,2.0;" x1="224.833" x2="510.5708" y1="236.6621" y2="236.6621"/><text fill="#333333" font-family="sans-serif" font-size="13" lengthAdjust="spacing" textLength="267.7378" x="236.833" y="231.9199">HTTP Error (e.g., 500 Internal Server Error)</text><path d="M44,249.6621 L44,274.6621 L214,274.6621 L214,259.6621 L204,249.6621 L44,249.6621 " fill="#FEFFDD" style="stroke:#181818;stroke-width:0.5;"/><path d="M204,249.6621 L204,259.6621 L214,259.6621 L204,249.6621 " fill="#FEFFDD" style="stroke:#181818;stroke-width:0.5;"/><text fill="#333333" font-family="sans-serif" font-size="13" lengthAdjust="spacing" textLength="149.5063" x="50" y="267.2305">Client handles the error</text><text fill="#333333" font-family="sans-serif" font-size="10" lengthAdjust="spacing" textLength="155.4346" x="0" y="338.1289">Last Modified On: 24-Feb-2025</text><!--SRC=[fP91Jzj048NlyokUKbKaKaEZebOLXnuASQ4bJILox6NnZkCLospOtHGXn7zdM1jaeEsXdODbptxlpHlRwTp9naHpWJDJdwzZs8ez23v4lAfcrSUgelH8M6xCrkSgIEwHlL83nCGOhlh33wM8Td38ZHF6MOYMOqAZfyPxiESBbfm6Udrq-Het17mkz5ClxJvFULYARcdWKcl26Fp_skWrkzfjZEH_io8QMeoELgiVEF1Ebnp19DJbzZVCASTV736UrssO53IL3b4dmVHJtzb74NoPh_1MWkL44Z8ZkdMR4Pf7gdVSn51pIfoGMwNuSiif_nGZ5ckZBVqunGNMP4ET65ETritjfxsRpR3yXYkNsm4E9_XwklpU9V3Sb00Fmcxj5m7I9aXY8kCpZflxPcIu12DW_PMYlb_WJpdczmJ6lBlUVOFt6kfOCaSn_c7T0aoAnzz2jRg_xoDrKraiKQ6ReCA84vCo5i6wnh75KlRnMdVcySZQwMAnc5vhZIPq1m00]--></g></svg>
